common/svg/google-app-store-icon.svg

<svg fill="none" height="20" viewBox="0 0 20 20" width="20" xmlns="http://www.w3.org/2000/svg" xmlns:xlink="http://www.w3.org/1999/xlink"><clipPath id="a"><path d="m0 0h20v20h-20z"/></clipPath><g clip-path="url(#a)"><path clip-rule="evenodd" d="m.706583.501622 9.669517 9.451708-9.677802 9.51097c-.068337-.1341-.1076-.2876-.1076-.4545v-18.037774c0-.17361.042452-.332654.115885-.470404zm.887327-.5310409c.16168.0003225.32756.0406892.48482.1286204l11.67937 6.5304485-2.6686 2.62261zm13.07359 7.1674989-2.8627 2.81333 3.0131 2.94529 3.5402-1.9414c.689-.3778.693-1.36612.0072-1.74961zm-.766 6.26122-2.8101-2.7468-9.52273 9.3585c.16705.0039.33941-.0347.50286-.1243z" fill="#000" fill-rule="evenodd"/></g></svg>

<svg width="20" height="20" viewBox="0 0 20 20" fill="none" xmlns="http://www.w3.org/2000/svg">
<g clip-path="url(#clip0)">
<path fill-rule="evenodd" clip-rule="evenodd" d="M0.706583 0.501622L10.3761 9.95333L0.698298 19.4643C0.629961 19.3302 0.590698 19.1767 0.590698 19.0098V0.972026C0.590698 0.798416 0.63315 0.639372 0.706583 0.501622ZM1.59391 -0.0294189C1.75559 -0.0290964 1.92147 0.0112703 2.07873 0.0992015L13.7581 6.62965L11.0895 9.25226L1.59391 -0.0294189ZM14.6675 7.13808L11.8048 9.95141L14.8179 12.8967L18.3581 10.9553C19.0471 10.5775 19.0511 9.58918 18.3653 9.20569L14.6675 7.13808ZM13.9015 13.3993L11.0914 10.6525L1.56867 20.011C1.73572 20.0149 1.90808 19.9763 2.07153 19.8867L13.9015 13.3993Z" fill="black"/>
</g>
<defs>
<clipPath id="clip0">
<rect width="20" height="20" fill="white"/>
</clipPath>
</defs>
</svg>
